X: 5676
T: Byrne's
R: hornpipe
M: 4/4
K: Dmajor
|:AF|(3FEF (3GFG AFDA|dA (3Bcd ecAg|fdge fdec|(3dcB cd ecAG|
(3FEF (3GFG AFDA|dA (3Bcd ecAg|fdge fdec|dfec d2:|
|:cd|ecAc efge|afdf bgeg|afdf geaf|(3gfe fd ecAG|
(3FEF (3GFG AFDA|dA (3Bcd ecAg|fdge fdec|dfec d2:|

